modules/feathericon/icons/pocket.svg

<?xml version="1.0" encoding="UTF-8"?>
<svg width="14px" height="13px" viewBox="0 0 14 13" version="1.1" xmlns="http://www.w3.org/2000/svg" xmlns:xlink="http://www.w3.org/1999/xlink">
    <!-- Generator: sketchtool 48.1 (47250) - http://www.bohemiancoding.com/sketch -->
    <title>pocket</title>
    <desc>Created with sketchtool.</desc>
    <defs></defs>
    <g id="brand" stroke="none" stroke-width="1" fill="none" fill-rule="evenodd">
        <g id="pocket" fill="#000000" fill-rule="nonzero">
            <path d="M13.9313773,0.835840636 C13.7493685,0.336016336 13.2698451,0 12.7378193,0 L12.7308189,0 L11.5260604,0 L1.2691617,0 C0.74623628,0 0.269513103,0.329015996 0.08330405,0.81903982 C0.0280013614,0.964646899 0,1.11585425 0,1.26986174 L0,5.49456713 L0.0483023483,6.33460797 C0.251312218,8.24570088 1.24326044,9.91528206 2.77773505,11.0794387 C2.80503637,11.1004397 2.83303773,11.1207407 2.8610391,11.1417417 L2.87853995,11.1543423 C3.70107994,11.7556715 4.62232473,12.1630913 5.61567302,12.3633011 C6.07419531,12.4557056 6.54321811,12.5033079 7.00944078,12.5033079 C7.43996171,12.5033079 7.87188271,12.4634059 8.29680337,12.3843021 C8.34790585,12.3745016 8.3983083,12.3647011 8.45011082,12.3535006 C8.4641115,12.3507005 8.47951225,12.3451002 8.494913,12.3373998 C9.44625925,12.1294897 10.3297022,11.7325704 11.1221407,11.1536423 L11.1396416,11.1410416 C11.1676429,11.1207407 11.1956443,11.1004397 11.2229456,11.0787386 C12.7574202,9.91388199 13.7493685,8.24430082 13.9516783,6.33390794 L13.9999806,5.4938671 L13.9999806,1.26986174 C14.0006807,1.12355462 13.9824798,0.978647579 13.9313773,0.835840636 Z M10.9667332,5.23695461 L7.67377308,8.39550817 C7.48756403,8.57331681 7.24815239,8.66292117 7.00944078,8.66292117 C6.77002914,8.66292117 6.5306175,8.57331681 6.34510848,8.39550817 L3.05144835,5.23695461 C2.66852974,4.87013677 2.65592912,4.26250723 3.02274696,3.87958862 C3.38956479,3.49667 3.99719433,3.48406939 4.38011295,3.85158725 L7.00944078,6.37240981 L9.63806858,3.85158725 C10.0209872,3.48476942 10.6286167,3.49737003 10.9954346,3.87958862 C11.3615524,4.26250723 11.3489518,4.86943674 10.9667332,5.23695461 Z" id="Shape"></path>
        </g>
    </g>
</svg>

<svg width="14" height="13" viewBox="0 0 14 13" xmlns="http://www.w3.org/2000/svg"><path d="M13.931.836A1.274 1.274 0 0 0 12.738 0H1.269A1.276 1.276 0 0 0 0 1.27v4.225l.048.84c.203 1.91 1.195 3.58 2.73 4.744l.083.063.018.012a6.928 6.928 0 0 0 2.737 1.21 7.072 7.072 0 0 0 2.68.02l.154-.03a.183.183 0 0 0 .045-.017 6.935 6.935 0 0 0 2.627-1.183l.018-.013c.028-.02.056-.04.083-.062 1.534-1.165 2.526-2.835 2.729-4.745l.048-.84V1.27c0-.146-.018-.291-.069-.434zm-2.964 4.401L7.674 8.396a.96.96 0 0 1-1.329 0L3.051 5.237a.96.96 0 1 1 1.33-1.385l2.628 2.52 2.63-2.52a.96.96 0 0 1 1.328 1.385z" fill="#000" fill-rule="nonzero"/></svg>
